src/static/logos/elasticbox.svg

<?xml version="1.0" encoding="UTF-8" standalone="no"?>
<svg width="256px" height="256px" viewBox="0 0 256 256" version="1.1" xmlns="http://www.w3.org/2000/svg" xmlns:xlink="http://www.w3.org/1999/xlink" preserveAspectRatio="xMidYMid">
    <g>
        <path d="M235.819158,190.017384 C235.819158,190.017384 213.314158,207.801384 203.933158,215.085384 C202.695158,216.052384 201.151158,216.706384 199.672158,215.455384 C198.429158,214.394384 199.086158,212.207384 199.566158,210.932384 C199.566158,210.932384 215.396158,170.094384 219.608158,158.745384 C220.120158,157.363384 220.846158,155.750384 223.266158,155.571384 C225.269158,155.428384 226.529158,157.266384 226.879158,157.960384 L238.237158,180.081384 C240.103158,183.893384 239.079158,187.355384 235.819158,190.014384 L235.819158,190.017384 Z M174.191158,230.701384 C172.883158,234.086384 167.820158,238.364384 163.004158,237.425384 C162.247158,237.278384 160.324158,236.783384 159.573158,236.572384 C158.549158,236.316384 30.3391576,203.028384 28.5691576,202.516384 C24.2171576,201.255384 21.3271576,199.438384 20.1211576,195.788384 C19.0891576,192.679384 21.2021576,187.824384 22.6761576,185.372384 C26.7601576,178.582384 84.4291576,83.3133837 84.9121576,82.4973837 C87.1881576,78.6573837 89.8451576,76.5663837 94.2901576,76.1713837 L222.035158,65.4533837 C225.354158,65.1603837 229.618158,64.9243837 231.720158,68.0353837 C234.585158,72.2853837 233.683158,75.6673837 232.602158,78.4863837 C232.602158,78.4863837 175.818158,226.460384 174.188158,230.693384 L174.191158,230.701384 Z M20.7841576,49.3023837 C20.4881576,48.0793837 19.7831576,44.6743837 21.4011576,43.4513837 C23.6001576,41.7933837 25.8391576,42.9503837 27.5001576,43.9633837 L64.7961576,66.8553837 C68.7221576,69.2443837 69.8171576,74.5643837 67.4301576,79.3053837 L45.5391576,115.390384 C44.8771576,116.357384 43.3011576,119.415384 40.5961576,119.042384 C38.0641576,118.695384 37.5381576,116.556384 37.2481576,115.674384 L20.7781576,49.2963837 L20.7841576,49.3023837 Z M41.5491576,24.3283837 L151.125158,16.7613837 C156.683158,16.2643837 161.456158,17.9453837 166.477158,20.3453837 C179.012158,26.3533837 212.938158,43.1413837 212.938158,43.1413837 C214.645158,43.9463837 216.727158,45.3033837 216.124158,47.0583837 C215.234158,49.6263837 212.517158,49.5553837 210.600158,49.7233837 L90.1521576,59.8263837 C86.8011576,59.8263837 84.0361576,59.0303837 81.1431576,57.3693837 L40.1321576,32.2073837 C38.4771576,31.1323837 37.0601576,29.5163837 37.6001576,27.1923837 C38.2661576,24.3363837 41.5491576,24.3253837 41.5491576,24.3253837 L41.5491576,24.3283837 Z M231.018158,128.975384 L253.637158,69.8563837 C259.667158,54.6893837 253.540158,44.3703837 242.230158,38.9883837 L174.734158,5.86738373 C167.211158,2.26938373 161.388158,-0.637616266 150.286158,0.121383734 L22.8261576,8.93938373 C16.4211576,9.55638373 8.91715758,13.0123837 4.86615758,18.6103837 C0.796157585,24.2283837 -0.261842415,33.5553837 1.42215758,40.2623837 L27.5911576,145.174384 C24.6841576,149.526384 9.50015758,175.112384 4.20915758,183.830384 C0.463157585,189.991384 -1.55284242,196.673384 1.45615758,203.665384 C4.35715758,210.398384 11.4681576,215.165384 18.6171576,217.071384 C54.5791576,226.645384 163.647158,254.822384 164.728158,255.101384 C166.804158,255.658384 168.528158,255.997384 170.664158,255.997384 C176.140158,255.997384 181.208158,253.898384 185.461158,250.550384 L246.759158,202.479384 C255.633158,195.467384 258.546158,183.412384 253.472158,173.391384 L231.020158,128.969384 L231.018158,128.975384 Z" fill="#FF9016"></path>
    </g>
</svg>

<svg width="256" height="256" xmlns="http://www.w3.org/2000/svg" preserveAspectRatio="xMidYMid"><path d="M235.82 190.017s-22.506 17.784-31.887 25.068c-1.238.967-2.782 1.621-4.26.37-1.244-1.06-.587-3.248-.107-4.523 0 0 15.83-40.838 20.042-52.187.512-1.382 1.238-2.995 3.658-3.174 2.003-.143 3.263 1.695 3.613 2.39l11.358 22.12c1.866 3.812.842 7.274-2.418 9.933v.003zm-61.629 40.684c-1.308 3.385-6.37 7.663-11.187 6.724-.757-.147-2.68-.642-3.43-.853-1.025-.256-129.235-33.544-131.005-34.056-4.352-1.26-7.242-3.078-8.448-6.728-1.032-3.109 1.081-7.964 2.555-10.416 4.084-6.79 61.753-102.059 62.236-102.875 2.276-3.84 4.933-5.93 9.378-6.326l127.745-10.718c3.32-.293 7.583-.529 9.685 2.582 2.865 4.25 1.963 7.632.882 10.451 0 0-56.784 147.974-58.414 152.207l.003.008zM20.784 49.302c-.296-1.223-1-4.628.617-5.85 2.2-1.659 4.438-.502 6.1.511l37.295 22.892c3.926 2.39 5.021 7.71 2.634 12.45L45.54 115.39c-.663.967-2.239 4.025-4.944 3.652-2.532-.347-3.058-2.486-3.348-3.368l-16.47-66.378.006.006zM41.55 24.328l109.576-7.567c5.558-.497 10.331 1.184 15.352 3.584 12.535 6.008 46.461 22.796 46.461 22.796 1.707.805 3.79 2.162 3.186 3.917-.89 2.568-3.607 2.497-5.524 2.665L90.152 59.826c-3.35 0-6.116-.796-9.009-2.457l-41.01-25.162c-1.656-1.075-3.073-2.69-2.533-5.015.666-2.856 3.95-2.867 3.95-2.867v.003zm189.47 104.647l22.618-59.119c6.03-15.167-.097-25.486-11.407-30.868l-67.496-33.12c-7.524-3.6-13.347-6.507-24.449-5.748L22.826 8.94c-6.405.617-13.909 4.073-17.96 9.671-4.07 5.618-5.128 14.945-3.444 21.652l26.17 104.912C24.683 149.526 9.5 175.112 4.208 183.83c-3.746 6.161-5.762 12.843-2.753 19.835 2.901 6.733 10.012 11.5 17.161 13.406 35.962 9.574 145.03 37.751 146.111 38.03 2.076.557 3.8.896 5.936.896 5.476 0 10.544-2.099 14.797-5.447l61.298-48.07c8.874-7.013 11.787-19.068 6.713-29.089L231.02 128.97l-.002.006z" fill="#FF9016"/></svg>
